X: 809
T: The Grumbling Rustic.
C:F. O'Neill.
B:O'Neill's Music of Ireland
N:O'Neill's - 809
Z:Transcribed by Stephen Foy (shf@access.digex.net)
Z:abc 1.6
Z:All ornaments (~) are trills.
R:Jig
M:6/8
K:D
A|DED AFA|dcd AFD|AGF ~F2 E|AGF F2 E|DED AFA|dcd AFD|
AFE E2 B|AFE E2:|A|DED d2 d|edc d2 B|AGF ~F2E|AGF F2 E|
[1 DED d2 d|edc d2 B|AFE E2B|AFE E2:|[2 edc dcB|cBA Bcd|\
AFE E2 B|AFE E2|]


